Origami/64x64/apps/hedgewars.svg

<svg width="64" height="64" version="1" xmlns="http://www.w3.org/2000/svg">
 <path d="m22.098 49c-0.048 0.33-0.098 0.658-0.098 1 0 3.878 3.122 7 7 7s7-3.122 7-7c0-0.342-0.05-0.67-0.098-1-0.486 3.396-3.366 6-6.902 6s-6.416-2.604-6.902-6z" style="opacity:.2"/>
 <path d="m40.098 47c-0.048 0.33-0.098 0.658-0.098 1 0 3.878 3.122 7 7 7s7-3.122 7-7c0-0.342-0.05-0.67-0.098-1-0.486 3.396-3.366 6-6.902 6s-6.416-2.604-6.902-6z" style="opacity:.2"/>
 <rect transform="matrix(0,-1,-1,0,0,0)" x="-54" y="-54" width="14" height="14" rx="7" ry="7" style="fill:#df82d9"/>
 <path d="M 22.156,36.148 9.375,36.918 8,39 23.274,38.082 22.156,36.148 Z" style="opacity:.2"/>
 <path d="m8 38 8.4298-12.7676 6.8422 11.8508z" style="fill:#72acef"/>
 <path d="m16.429688 25.234375l-8.429688 12.765625 0.6875-0.041016 7.742188-11.724609 6.285156 10.880859 0.558594-0.033203-6.84375-11.847656z" style="fill:#ffffff;opacity:.1"/>
 <path d="m8 27-2 1 14 7v-2l-12-6z" style="opacity:.2"/>
 <path d="m6 27 14-7v14z" style="fill:#4c95eb"/>
 <path d="m20 20l-14 7 1 0.5 13-6.5v-1z" style="fill:#ffffff;opacity:.1"/>
 <path d="M 22.988,15.7812 22.422,15.8984 19.4454,27 9.832,18.4726 8,18.8476 19.4454,29 22.988,15.7812 Z" style="opacity:.2"/>
 <path d="M 8,17.8492 22.988,14.782 19.447,28 Z" style="fill:#3a8ae9"/>
 <path d="m22.988281 14.78125l-14.988281 3.066406 0.9160156 0.8125 13.789062-2.820312 0.283203-1.058594z" style="fill:#ffffff;opacity:.1"/>
 <path d="m14 10.2344 8.43 12.7656c8.5328-13.6368 7.1804-14.789 0-2l-7.055-10.6836z" style="opacity:.2"/>
 <path d="M 14,9.2324 29.272,10.1492 22.43,22 Z" style="fill:#3074c3"/>
 <path d="m14 9.234375l0.6875 1.041016 14.027344 0.839843 0.558594-0.966796-15.273438-0.914063z" style="fill:#ffffff;opacity:.1"/>
 <path d="m18.0508 28c-0.0164 0.334-0.0508 0.662-0.0508 1 0 11.08 8.92 20 20 20s20-8.92 20-20c0-0.338-0.034-0.666-0.05-1-0.522 10.608-9.208 19-19.95 19s-19.4282-8.392-19.9492-19z" style="opacity:.2"/>
 <rect transform="matrix(0,-1,-1,0,0,0)" x="-48" y="-58" width="40" height="40" rx="20" ry="20" style="fill:#d761cf"/>
 <g transform="matrix(1.33334,0,0,1.27272,8.6666,-1.36344)" style="opacity:.2">
  <ellipse cx="26" cy="22" rx="4" ry="5"/>
  <ellipse cx="30" cy="21" rx="4" ry="5"/>
 </g>
 <rect transform="matrix(0,-1,-1,0,0,0)" x="-56" y="-36" width="14" height="14" rx="7" ry="7" style="fill:#df82d9"/>
 <g transform="matrix(1.33334,0,0,1.27272,8.6666,-2.3636)" style="fill:#ffffff">
  <ellipse cx="26" cy="22" rx="4" ry="5"/>
  <ellipse cx="30" cy="21" rx="4" ry="5"/>
 </g>
 <ellipse cx="45.5" cy="26" rx="1.5" ry="2" style="fill:#1b1b1b"/>
 <path d="m50.598 36c-2.1846 0.5246-3.5292 2.2854-5.6848 2.7626-1.55142 0.30192-3.5934-0.97948-5.0466-0.26364-0.81314 0.40054-2.9228 1.4576-1.22092 2.14 0 0 1.00376 0.40464 2.2678 0.76656 1.26404 0.36194 2.7302 0.77398 4.2788 0.51182 1.75102-0.29646 3.1612-1.3102 4.356-2.2024 1.19484-0.89222 2.08-1.72998 2.08-1.72998 0.824-0.758 0.192-1.976-1.03-1.986z" style="fill-rule:evenodd;opacity:.6"/>
 <ellipse cx="51.5" cy="24" rx="1.5" ry="2" style="fill:#1b1b1b"/>
 <path d="M 38 8 C 26.92 8 18 16.92 18 28 C 18 28.11023 18.010125 28.217514 18.015625 28.326172 C 18.369689 17.561574 27.146235 9 38 9 C 48.853765 9 57.630311 17.561574 57.984375 28.326172 C 57.989804 28.217514 58 28.11023 58 28 C 58 16.92 49.08 8 38 8 z" style="fill:#ffffff;opacity:.1"/>
 <path d="m29 42c-3.878 0-7 3.122-7 7 0 0.342 0.05 0.67 0.098 1 0.486-3.396 3.366-6 6.902-6s6.416 2.604 6.902 6c0.048-0.33 0.098-0.658 0.098-1 0-3.878-3.122-7-7-7z" style="fill:#ffffff;opacity:.1"/>
</svg>

<svg xmlns="http://www.w3.org/2000/svg" width="64" height="64" version="1">
 <path style="opacity:0.2" d="M 22.098,49 C 22.05,49.33 22,49.658 22,50 c 0,3.878 3.122,7 7,7 3.878,0 7,-3.122 7,-7 0,-0.342 -0.05,-0.67 -0.098,-1 -0.486,3.396 -3.366,6 -6.902,6 -3.536,0 -6.416,-2.604 -6.902,-6 z"/>
 <path style="opacity:0.2" d="M 40.098,47 C 40.05,47.33 40,47.658 40,48 c 0,3.878 3.122,7 7,7 3.878,0 7,-3.122 7,-7 0,-0.342 -0.05,-0.67 -0.098,-1 -0.486,3.396 -3.366,6 -6.902,6 -3.536,0 -6.416,-2.604 -6.902,-6 z"/>
 <rect style="fill:#df82d9" width="14" height="14" x="-54" y="-54" rx="7" ry="7" transform="matrix(0,-1,-1,0,0,0)"/>
 <path style="opacity:0.2" d="M 22.156,36.148 9.375,36.918 8,39 23.274,38.082 22.156,36.148 Z"/>
 <path style="fill:#72acef" d="M 8,38 16.4298,25.2324 23.272,37.0832 Z"/>
 <path style="opacity:0.1;fill:#ffffff" d="M 16.429688 25.234375 L 8 38 L 8.6875 37.958984 L 16.429688 26.234375 L 22.714844 37.115234 L 23.273438 37.082031 L 16.429688 25.234375 z"/>
 <path style="opacity:0.2" d="M 8,27 6,28 20,35 20,33 8,27 Z"/>
 <path style="fill:#4c95eb" d="m 6,27 14,-7 0,14 z"/>
 <path style="opacity:0.1;fill:#ffffff" d="M 20 20 L 6 27 L 7 27.5 L 20 21 L 20 20 z"/>
 <path style="opacity:0.2" d="M 22.988,15.7812 22.422,15.8984 19.4454,27 9.832,18.4726 8,18.8476 19.4454,29 22.988,15.7812 Z"/>
 <path style="fill:#3a8ae9" d="M 8,17.8492 22.988,14.782 19.447,28 Z"/>
 <path style="opacity:0.1;fill:#ffffff" d="M 22.988281 14.78125 L 8 17.847656 L 8.9160156 18.660156 L 22.705078 15.839844 L 22.988281 14.78125 z"/>
 <path style="opacity:0.2" d="M 14,10.2344 22.43,23 c 8.5328,-13.6368 7.1804,-14.789 0,-2 L 15.375,10.3164 Z"/>
 <path style="fill:#3074c3" d="M 14,9.2324 29.272,10.1492 22.43,22 Z"/>
 <path style="opacity:0.1;fill:#ffffff" d="M 14 9.234375 L 14.6875 10.275391 L 28.714844 11.115234 L 29.273438 10.148438 L 14 9.234375 z"/>
 <path style="opacity:0.2" d="M 18.0508,28 C 18.0344,28.334 18,28.662 18,29 18,40.08 26.92,49 38,49 49.08,49 58,40.08 58,29 58,28.662 57.966,28.334 57.95,28 57.428,38.608 48.742,47 38,47 27.258,47 18.5718,38.608 18.0508,28 Z"/>
 <rect style="fill:#d761cf" width="40" height="40" x="-48" y="-58" rx="20" ry="20" transform="matrix(0,-1,-1,0,0,0)"/>
 <g style="opacity:0.2" transform="matrix(1.33334,0,0,1.27272,8.6666,-1.36344)">
  <ellipse cx="26" cy="22" rx="4" ry="5"/>
  <ellipse cx="30" cy="21" rx="4" ry="5"/>
 </g>
 <rect style="fill:#df82d9" width="14" height="14" x="-56" y="-36" rx="7" ry="7" transform="matrix(0,-1,-1,0,0,0)"/>
 <g style="fill:#ffffff" transform="matrix(1.33334,0,0,1.27272,8.6666,-2.3636)">
  <ellipse cx="26" cy="22" rx="4" ry="5"/>
  <ellipse cx="30" cy="21" rx="4" ry="5"/>
 </g>
 <ellipse style="fill:#1b1b1b" cx="45.5" cy="26" rx="1.5" ry="2"/>
 <path style="opacity:0.6;fill-rule:evenodd" d="m 50.598,36 c -2.1846,0.5246 -3.5292,2.2854 -5.6848,2.7626 -1.55142,0.30192 -3.5934,-0.97948 -5.0466,-0.26364 -0.81314,0.40054 -2.9228,1.4576 -1.22092,2.14 0,0 1.00376,0.40464 2.2678,0.76656 1.26404,0.36194 2.7302,0.77398 4.2788,0.51182 1.75102,-0.29646 3.1612,-1.3102 4.356,-2.2024 1.19484,-0.89222 2.08,-1.72998 2.08,-1.72998 0.824,-0.758 0.192,-1.976 -1.03,-1.986 z"/>
 <ellipse style="fill:#1b1b1b" cx="51.5" cy="24" rx="1.5" ry="2"/>
 <path style="opacity:0.1;fill:#ffffff" d="M 38 8 C 26.92 8 18 16.92 18 28 C 18 28.11023 18.010125 28.217514 18.015625 28.326172 C 18.369689 17.561574 27.146235 9 38 9 C 48.853765 9 57.630311 17.561574 57.984375 28.326172 C 57.989804 28.217514 58 28.11023 58 28 C 58 16.92 49.08 8 38 8 z"/>
 <path style="opacity:0.1;fill:#ffffff" d="m 29,42 c -3.878,0 -7,3.122 -7,7 0,0.342 0.05,0.67 0.098,1 0.486,-3.396 3.366,-6 6.902,-6 3.536,0 6.416,2.604 6.902,6 C 35.95,49.67 36,49.342 36,49 36,45.122 32.878,42 29,42 Z"/>
</svg>
